Numix-Light/16/status/indicator-keyboard-Sv-6.svg

<?xml version="1.0" encoding="UTF-8" standalone="no"?>
<svg
   xmlns:dc="http://purl.org/dc/elements/1.1/"
   xmlns:cc="http://creativecommons.org/ns#"
   xmlns:rdf="http://www.w3.org/1999/02/22-rdf-syntax-ns#"
   xmlns:svg="http://www.w3.org/2000/svg"
   xmlns="http://www.w3.org/2000/svg"
   xmlns:sodipodi="http://sodipodi.sourceforge.net/DTD/sodipodi-0.dtd"
   xmlns:inkscape="http://www.inkscape.org/namespaces/inkscape"
   viewBox="0 0 16 16"
   id="svg2"
   version="1.1"
   inkscape:version="0.91 r13725"
   sodipodi:docname="indicator-keyboard-Sv-6.svg">
  <metadata
     id="metadata14">
    <rdf:RDF>
      <cc:Work
         rdf:about="">
        <dc:format>image/svg+xml</dc:format>
        <dc:type
           rdf:resource="http://purl.org/dc/dcmitype/StillImage" />
      </cc:Work>
    </rdf:RDF>
  </metadata>
  <defs
     id="defs12" />
  <sodipodi:namedview
     pagecolor="#ffffff"
     bordercolor="#666666"
     borderopacity="1"
     objecttolerance="10"
     gridtolerance="10"
     guidetolerance="10"
     inkscape:pageopacity="0"
     inkscape:pageshadow="2"
     inkscape:window-width="640"
     inkscape:window-height="480"
     id="namedview10"
     showgrid="false"
     inkscape:zoom="14.75"
     inkscape:cx="8"
     inkscape:cy="8"
     inkscape:window-x="75"
     inkscape:window-y="34"
     inkscape:window-maximized="0"
     inkscape:current-layer="svg2" />
  <path
     style="fill:#353535;fill-opacity:1"
     d="M 1.5996094 0 C 0.71320937 2.9605947e-16 0 0.71320937 0 1.5996094 L 0 14.400391 C 2.9605947e-16 15.286791 0.71320937 16 1.5996094 16 L 14.400391 16 C 15.286791 16 16 15.286791 16 14.400391 L 16 1.5996094 C 16 0.71320937 15.286791 0 14.400391 0 L 1.5996094 0 z M 4.4179688 4.7246094 C 4.5859687 4.7246094 4.7520625 4.7357656 4.9140625 4.7597656 C 5.0760625 4.7837656 5.2252813 4.817375 5.3632812 4.859375 C 5.5072812 4.895375 5.636 4.936375 5.75 4.984375 C 5.87 5.032375 5.968875 5.0846719 6.046875 5.1386719 L 5.8320312 5.6503906 C 5.6580312 5.5303906 5.4434062 5.4352812 5.1914062 5.3632812 C 4.9454063 5.2912813 4.678625 5.2558594 4.390625 5.2558594 C 4.192625 5.2558594 4.0097969 5.2763594 3.8417969 5.3183594 C 3.6797969 5.3543594 3.5399219 5.4178125 3.4199219 5.5078125 C 3.2999219 5.5918125 3.2028594 5.6980781 3.1308594 5.8300781 C 3.0648594 5.9620781 3.0332031 6.1225938 3.0332031 6.3085938 C 3.0332031 6.5005938 3.068625 6.6629219 3.140625 6.7949219 C 3.212625 6.9269219 3.3115 7.0407187 3.4375 7.1367188 C 3.5695 7.2327187 3.7224844 7.3184844 3.8964844 7.3964844 C 4.0704844 7.4744844 4.2588906 7.556625 4.4628906 7.640625 C 4.7088906 7.742625 4.94025 7.8433125 5.15625 7.9453125 C 5.37825 8.0473125 5.5704219 8.1686406 5.7324219 8.3066406 C 5.8944219 8.4446406 6.0231406 8.6125469 6.1191406 8.8105469 C 6.2151406 9.0085469 6.2636719 9.2510625 6.2636719 9.5390625 C 6.2636719 10.103063 6.0659219 10.526594 5.6699219 10.808594 C 5.2799219 11.090594 4.7481719 11.230469 4.0761719 11.230469 C 3.8361719 11.230469 3.6179219 11.215547 3.4199219 11.185547 C 3.2219219 11.155547 3.0446719 11.120125 2.8886719 11.078125 C 2.7326719 11.030125 2.6001875 10.981594 2.4921875 10.933594 C 2.3841875 10.885594 2.3002344 10.844594 2.2402344 10.808594 L 2.4375 10.277344 C 2.4975 10.313344 2.5796406 10.354344 2.6816406 10.402344 C 2.7836406 10.450344 2.9030156 10.498875 3.0410156 10.546875 C 3.1790156 10.588875 3.3357656 10.624297 3.5097656 10.654297 C 3.6837656 10.684297 3.8759375 10.699219 4.0859375 10.699219 C 4.5719375 10.699219 4.94875 10.613453 5.21875 10.439453 C 5.48875 10.259453 5.625 9.970219 5.625 9.5742188 C 5.625 9.3462188 5.5802344 9.1578125 5.4902344 9.0078125 C 5.4062344 8.8518125 5.2904844 8.7230937 5.1464844 8.6210938 C 5.0024844 8.5130937 4.8383437 8.4235625 4.6523438 8.3515625 C 4.4663438 8.2735625 4.2704062 8.1914219 4.0664062 8.1074219 C 3.8084063 8.0054219 3.579 7.9009687 3.375 7.7929688 C 3.171 7.6849688 2.9955625 7.5655937 2.8515625 7.4335938 C 2.7075625 7.2955937 2.5975313 7.1388438 2.5195312 6.9648438 C 2.4475312 6.7908437 2.4121094 6.5875156 2.4121094 6.3535156 C 2.4121094 5.8195156 2.5874063 5.4146719 2.9414062 5.1386719 C 3.2954062 4.8626719 3.7879688 4.7246094 4.4179688 4.7246094 z M 6.6679688 6.4433594 L 7.2871094 6.4433594 C 7.3591094 6.7613594 7.4468281 7.10275 7.5488281 7.46875 C 7.6568281 7.82875 7.770625 8.1888281 7.890625 8.5488281 C 8.016625 8.9028281 8.1453438 9.2479844 8.2773438 9.5839844 C 8.4093437 9.9139846 8.5400156 10.208797 8.6660156 10.466797 C 8.7920156 10.208797 8.9207344 9.9139846 9.0527344 9.5839844 C 9.1847344 9.2479844 9.3096875 8.9028281 9.4296875 8.5488281 C 9.5556875 8.1888281 9.6694844 7.82875 9.7714844 7.46875 C 9.8794844 7.10275 9.9709689 6.7613594 10.042969 6.4433594 L 10.626953 6.4433594 C 10.518953 6.8693594 10.399578 7.289125 10.267578 7.703125 C 10.135578 8.117125 9.9937499 8.5219688 9.84375 8.9179688 C 9.69975 9.3139687 9.5467656 9.6945467 9.3847656 10.060547 C 9.2287656 10.426547 9.0757813 10.771703 8.9257812 11.095703 L 8.3671875 11.095703 C 8.2111875 10.771703 8.0563906 10.426547 7.9003906 10.060547 C 7.7443906 9.6945467 7.5914063 9.3139688 7.4414062 8.9179688 C 7.2974062 8.5219688 7.1593437 8.117125 7.0273438 7.703125 C 6.8953438 7.289125 6.7759687 6.8693594 6.6679688 6.4433594 z M 13.490234 8.8242188 L 13.513672 9.1464844 C 13.275772 9.1620844 13.056316 9.1993125 12.853516 9.2578125 C 12.654616 9.3124125 12.476312 9.4005844 12.320312 9.5214844 C 12.164313 9.6384843 12.033034 9.7893625 11.927734 9.9765625 C 11.822434 10.163763 11.751891 10.394969 11.712891 10.667969 C 11.818191 10.613369 11.943597 10.566344 12.091797 10.527344 C 12.239997 10.484444 12.398706 10.462891 12.566406 10.462891 C 12.784806 10.462891 12.968994 10.498159 13.121094 10.568359 C 13.273194 10.634659 13.396634 10.722838 13.490234 10.835938 C 13.583834 10.949038 13.652412 11.080316 13.695312 11.228516 C 13.738212 11.376716 13.759766 11.533466 13.759766 11.697266 C 13.759766 11.849366 13.736253 12.000244 13.689453 12.152344 C 13.642653 12.304444 13.568197 12.443559 13.466797 12.568359 C 13.369297 12.689259 13.24585 12.789187 13.09375 12.867188 C 12.94555 12.945188 12.767247 12.984375 12.560547 12.984375 C 12.135447 12.984375 11.812144 12.835463 11.589844 12.539062 C 11.371444 12.238762 11.261719 11.821409 11.261719 11.287109 C 11.261719 10.495409 11.451778 9.8958281 11.830078 9.4863281 C 12.212278 9.0768281 12.764834 8.8554188 13.490234 8.8242188 z M 12.53125 10.794922 C 12.35185 10.794922 12.193141 10.816475 12.056641 10.859375 C 11.924041 10.898375 11.800594 10.9454 11.683594 11 C 11.675794 11.0663 11.671875 11.119203 11.671875 11.158203 L 11.671875 11.292969 C 11.671875 11.476269 11.683631 11.650653 11.707031 11.814453 C 11.734331 11.978253 11.781356 12.121294 11.847656 12.246094 C 11.917856 12.370894 12.007994 12.470822 12.121094 12.544922 C 12.234194 12.615122 12.379188 12.650391 12.554688 12.650391 C 12.698988 12.650391 12.822428 12.624919 12.923828 12.574219 C 13.025228 12.519619 13.105569 12.449081 13.167969 12.363281 C 13.230369 12.277481 13.275434 12.177553 13.302734 12.064453 C 13.333934 11.951353 13.349609 11.833784 13.349609 11.708984 C 13.349609 11.396984 13.279072 11.165778 13.138672 11.017578 C 13.002172 10.869378 12.80035 10.794922 12.53125 10.794922 z "
     id="path4" />
</svg>

<svg xmlns="http://www.w3.org/2000/svg" viewBox="0 0 16 16">
 <path d="m 1.6 0 c -0.886 0 -1.6 0.713 -1.6 1.6 l 0 12.801 c 0 0.886 0.713 1.6 1.6 1.6 l 12.801 0 c 0.886 0 1.6 -0.713 1.6 -1.6 l 0 -12.801 c 0 -0.886 -0.713 -1.6 -1.6 -1.6 l -12.801 0 z m 2.818 4.725 c 0.168 0 0.334 0.011 0.496 0.035 c 0.162 0.024 0.311 0.058 0.449 0.1 c 0.144 0.036 0.273 0.077 0.387 0.125 c 0.12 0.048 0.219 0.1 0.297 0.154 l -0.215 0.512 c -0.174 -0.12 -0.389 -0.215 -0.641 -0.287 c -0.246 -0.072 -0.513 -0.107 -0.801 -0.107 c -0.198 0 -0.381 0.02 -0.549 0.063 c -0.162 0.036 -0.302 0.099 -0.422 0.189 c -0.12 0.084 -0.217 0.19 -0.289 0.322 c -0.066 0.132 -0.098 0.293 -0.098 0.479 c 0 0.192 0.035 0.354 0.107 0.486 c 0.072 0.132 0.171 0.246 0.297 0.342 c 0.132 0.096 0.285 0.182 0.459 0.26 c 0.174 0.078 0.362 0.16 0.566 0.244 c 0.246 0.102 0.477 0.203 0.693 0.305 c 0.222 0.102 0.414 0.223 0.576 0.361 c 0.162 0.138 0.291 0.306 0.387 0.504 c 0.096 0.198 0.145 0.441 0.145 0.729 c 0 0.564 -0.198 0.988 -0.594 1.27 c -0.39 0.282 -0.922 0.422 -1.594 0.422 c -0.24 0 -0.458 -0.015 -0.656 -0.045 c -0.198 -0.03 -0.375 -0.065 -0.531 -0.107 c -0.156 -0.048 -0.288 -0.097 -0.396 -0.145 c -0.108 -0.048 -0.192 -0.089 -0.252 -0.125 l 0.197 -0.531 c 0.06 0.036 0.142 0.077 0.244 0.125 c 0.102 0.048 0.221 0.097 0.359 0.145 c 0.138 0.042 0.295 0.077 0.469 0.107 c 0.174 0.03 0.366 0.045 0.576 0.045 c 0.486 0 0.863 -0.086 1.133 -0.26 c 0.27 -0.18 0.406 -0.469 0.406 -0.865 c 0 -0.228 -0.045 -0.416 -0.135 -0.566 c -0.084 -0.156 -0.2 -0.285 -0.344 -0.387 c -0.144 -0.108 -0.308 -0.198 -0.494 -0.27 c -0.186 -0.078 -0.382 -0.16 -0.586 -0.244 c -0.258 -0.102 -0.487 -0.206 -0.691 -0.314 c -0.204 -0.108 -0.379 -0.227 -0.523 -0.359 c -0.144 -0.138 -0.254 -0.295 -0.332 -0.469 c -0.072 -0.174 -0.107 -0.377 -0.107 -0.611 c 0 -0.534 0.175 -0.939 0.529 -1.215 c 0.354 -0.276 0.847 -0.414 1.477 -0.414 z m 2.25 1.719 l 0.619 0 c 0.072 0.318 0.16 0.659 0.262 1.025 c 0.108 0.36 0.222 0.72 0.342 1.08 c 0.126 0.354 0.255 0.699 0.387 1.035 c 0.132 0.33 0.263 0.625 0.389 0.883 c 0.126 -0.258 0.255 -0.553 0.387 -0.883 c 0.132 -0.336 0.257 -0.681 0.377 -1.035 c 0.126 -0.36 0.24 -0.72 0.342 -1.08 c 0.108 -0.366 0.199 -0.707 0.271 -1.025 l 0.584 0 c -0.108 0.426 -0.227 0.846 -0.359 1.26 c -0.132 0.414 -0.274 0.819 -0.424 1.215 c -0.144 0.396 -0.297 0.777 -0.459 1.143 c -0.156 0.366 -0.309 0.711 -0.459 1.035 l -0.559 0 c -0.156 -0.324 -0.311 -0.669 -0.467 -1.035 c -0.156 -0.366 -0.309 -0.747 -0.459 -1.143 c -0.144 -0.396 -0.282 -0.801 -0.414 -1.215 c -0.132 -0.414 -0.251 -0.834 -0.359 -1.26 z m 6.822 2.381 l 0.023 0.322 c -0.238 0.016 -0.457 0.053 -0.66 0.111 c -0.199 0.055 -0.377 0.143 -0.533 0.264 c -0.156 0.117 -0.287 0.268 -0.393 0.455 c -0.105 0.187 -0.176 0.418 -0.215 0.691 c 0.105 -0.055 0.231 -0.102 0.379 -0.141 c 0.148 -0.043 0.307 -0.064 0.475 -0.064 c 0.218 0 0.403 0.035 0.555 0.105 c 0.152 0.066 0.276 0.154 0.369 0.268 c 0.094 0.113 0.162 0.244 0.205 0.393 c 0.043 0.148 0.064 0.305 0.064 0.469 c 0 0.152 -0.024 0.303 -0.07 0.455 c -0.047 0.152 -0.121 0.291 -0.223 0.416 c -0.098 0.121 -0.221 0.221 -0.373 0.299 c -0.148 0.078 -0.327 0.117 -0.533 0.117 c -0.425 0 -0.748 -0.149 -0.971 -0.445 c -0.218 -0.3 -0.328 -0.718 -0.328 -1.252 c 0 -0.792 0.19 -1.391 0.568 -1.801 c 0.382 -0.409 0.935 -0.631 1.66 -0.662 z m -0.959 1.971 c -0.179 0 -0.338 0.022 -0.475 0.064 c -0.133 0.039 -0.256 0.086 -0.373 0.141 c -0.008 0.066 -0.012 0.119 -0.012 0.158 l 0 0.135 c 0 0.183 0.012 0.358 0.035 0.521 c 0.027 0.164 0.074 0.307 0.141 0.432 c 0.07 0.125 0.16 0.225 0.273 0.299 c 0.113 0.07 0.258 0.105 0.434 0.105 c 0.144 0 0.268 -0.025 0.369 -0.076 c 0.101 -0.055 0.182 -0.125 0.244 -0.211 c 0.062 -0.086 0.107 -0.186 0.135 -0.299 c 0.031 -0.113 0.047 -0.231 0.047 -0.355 c 0 -0.312 -0.071 -0.543 -0.211 -0.691 c -0.136 -0.148 -0.338 -0.223 -0.607 -0.223 z" style="fill:#353535;fill-opacity:1"/>
</svg>
